X:1
T:Title
%%score { ( 1 3 ) | ( 2 4 ) }
L:1/8
M:4/4
K:C
V:1 treble nm="Grand Piano"
V:3 treble 
V:2 bass 
V:4 bass 
V:1
 z4 z2[Q:1/4=106] [G,CE]>[G,DF] | [CEG]2 [B,FG]2 [CG]2 [A,FA]>[FB] | [Ec]4 [EG]2 [Gc]>[Gc] | %3
 [Ac]2 [^Gd]2 [Ac]2 [FA]2 | [EG]6 [EG]>[FA] | [EG]2 [DF]2 [DF]2 [DF]>[EG] | %6
 [DF]2 [CE]2 [CE]2 [Ec][Ec] | [DB]2 [EA]2 G2 ^F2 |[M:3/4] G6[K:bass] |[M:1/4][K:treble] [FA]>[FB] | %10
[M:4/4] [Ec]2 [Gc]2 [Ac]2 [GB]>[A,FA] | [CEG]2 [G,CE]2 [G,EG]2 A>G | %12
 F2 [B,D]>[CE] [G,DF]2 [G,B,G]2 | [G,CE]4 z2 [G,EG]>[FA] | [Ec]2 [Gc]2 [Ac]2 [GB]>[B,FA] | %15
 [CEG]2 [B,FG]2 [CG]2 [B,FG]>[_B,EG] | [A,CA]2 [Fd]2 c2 B2 |[M:3/4] [Ec]6 |] %18
V:2
 z4 z2 C,>C, | C,2 D,2 E,2 F,>[D,G,] | [C,G,]4 [C,C]2 [E,_B,]>[E,B,] | %3
 [F,A,]2 [F,B,]2 [F,C]2 [F,C]2 | [C,C]6 [C,G,]>[C,G,] | %5
 [B,,G,]2 [G,,G,]2 [B,,G,]2 [G,,G,]>[G,,G,] | [B,,G,]2 [G,,G,]2 [C,G,]2 [A,,G,][A,,^F,] | %7
 [B,,G,]2 [C,G,]2 [D,B,D]2 [D,A,C]2 |[M:3/4] [G,B,]6 |[M:1/4] [D,G,]>[D,G,] | %10
[M:4/4] [C,G,]2 [E,G,]2 F,2 F,>F, | C,2 C,2 C,2 [C,F,C]>[C,E,C] | %12
 [D,G,B,]2 [G,,G,]>[G,,G,] B,,2 G,,2 | C,2 E,2 G,F, E,>[D,G,] | [C,G,]2 [E,G,]2 z G, [F,A,]>F, | %15
 C,2 D,2 E,2 D,>C, | F,2 [D,A,]2 [G,E]2 [G,D]2 |[M:3/4] [C,G,]6 |] %18
V:3
 x8 | x8 | x8 | x8 | x8 | x8 | x8 | x8 |[M:3/4] z2[K:bass] F,2 E,2 |[M:1/4][K:treble] x2 | %10
[M:4/4] x8 | x8 | x8 | x8 | x8 | x8 | x8 |[M:3/4] x6 |] %18
V:4
 x8 | x8 | x8 | x8 | x8 | x8 | x8 | x8 |[M:3/4] x6 |[M:1/4] x2 |[M:4/4] x8 | x8 | x8 | x8 | %14
 z4 F,2 z2 | x8 | x8 |[M:3/4] x6 |] %18

